SVG_Azure_Grouped/Data/SQL Database Azure Data Studio.svg

<?xml version="1.0" encoding="UTF-8" standalone="no"?>
<!-- Generated by Microsoft Visio, SVG Export SQL Database Azure Data Studio.svg Page-1 -->

<svg
   xmlns:dc="http://purl.org/dc/elements/1.1/"
   xmlns:cc="http://creativecommons.org/ns#"
   xmlns:rdf="http://www.w3.org/1999/02/22-rdf-syntax-ns#"
   xmlns:svg="http://www.w3.org/2000/svg"
   xmlns="http://www.w3.org/2000/svg"
   xmlns:sodipodi="http://sodipodi.sourceforge.net/DTD/sodipodi-0.dtd"
   xmlns:inkscape="http://www.inkscape.org/namespaces/inkscape"
   width="0.70829129in"
   height="0.78917313in"
   viewBox="0 0 50.996916 56.820606"
   xml:space="preserve"
   class="st8"
   version="1.1"
   id="svg59"
   sodipodi:docname="SQL Database Azure Data Studio.svg"
   style="font-size:12px;overflow:visible;color-interpolation-filters:sRGB;fill:none;fill-rule:evenodd;stroke-linecap:square;stroke-miterlimit:3"
   inkscape:version="0.92.5 (2060ec1f9f, 2020-04-08)"><metadata
   id="metadata65"><rdf:RDF><cc:Work
       rdf:about=""><dc:format>image/svg+xml</dc:format><dc:type
         rdf:resource="http://purl.org/dc/dcmitype/StillImage" /></cc:Work></rdf:RDF></metadata><defs
   id="defs63" /><sodipodi:namedview
   pagecolor="#ffffff"
   bordercolor="#666666"
   borderopacity="1"
   objecttolerance="10"
   gridtolerance="10"
   guidetolerance="10"
   inkscape:pageopacity="0"
   inkscape:pageshadow="2"
   inkscape:window-width="640"
   inkscape:window-height="480"
   id="namedview61"
   showgrid="false"
   inkscape:zoom="1.8365233"
   inkscape:cx="34.015635"
   inkscape:cy="18.900351"
   inkscape:window-x="0"
   inkscape:window-y="0"
   inkscape:window-maximized="0"
   inkscape:current-layer="svg59" />
	<style
   type="text/css"
   id="style2">
	<![CDATA[
		.st1 {fill:#6bbcda;stroke:none;stroke-linecap:butt;stroke-width:1.33917}
		.st2 {fill:#8acae1;stroke:none;stroke-linecap:butt;stroke-width:1.33917}
		.st3 {fill:#50a7e1;stroke:none;stroke-linecap:butt;stroke-width:1.33917}
		.st4 {fill:#c0d557;stroke:none;stroke-linecap:butt;stroke-width:1.33917}
		.st5 {fill:#1e80c6;stroke:none;stroke-linecap:butt;stroke-width:1.33917}
		.st6 {fill:#ffffff;stroke:none;stroke-linecap:butt;stroke-width:1.33917}
		.st7 {fill:#0e4da7;stroke:none;stroke-linecap:butt;stroke-width:1.33917}
		.st8 {fill:none;fill-rule:evenodd;font-size:12px;overflow:visible;stroke-linecap:square;stroke-miterlimit:3}
	]]>
	</style>

	<g
   id="g57"
   transform="translate(-5.1024712,-5.5436903)">
		<title
   id="title4">Page-1</title>
		<g
   id="group19166-1"
   transform="translate(5.10236,-34.0157)">
			<title
   id="title6">SQL Database Azure Data Studio.19166</title>
			<g
   id="group19167-2">
				<title
   id="title8">Sheet.19167</title>
				<g
   id="shape19168-3"
   transform="translate(13.71,-33.2007)">
					<title
   id="title10">Sheet.19168</title>
					<path
   d="M 30.54,82.41 H 30.35 A 10.3802,10.5574 -180 0 0 11.22,77.7 9.76345,9.93009 -180 0 0 9.29,77.49 a 9.2864973,9.445 -180 1 0 0,18.89 h 21.25 a 6.86392,6.98107 -180 0 0 0,-13.96 z"
   class="st1"
   id="path12"
   inkscape:connector-curvature="0"
   style="fill:#6bbcda;stroke:none;stroke-width:1.33916998;stroke-linecap:butt" />
				</g>
				<g
   id="shape19169-5"
   transform="translate(13.9621,-34.1178)">
					<title
   id="title15">Sheet.19169</title>
					<path
   d="M 13.81,81.31 A 10.3691,10.546 0 0 1 15.94,81.55 10.2551,10.4301 0 0 1 26.45,76.16 10.3825,10.5597 -180 0 0 10.97,78.62 9.76345,9.93009 -180 0 0 9.04,78.41 9.28522,9.4437 -180 0 0 5.07,96.38 9.88413,10.0528 0 0 1 3.85,91.5 9.99251,10.1631 0 0 1 13.81,81.31 Z"
   class="st2"
   id="path17"
   inkscape:connector-curvature="0"
   style="fill:#8acae1;stroke:none;stroke-width:1.33916998;stroke-linecap:butt" />
				</g>
				<g
   id="shape19170-7"
   transform="translate(0,-0.0170464)">
					<title
   id="title20">Sheet.19170</title>
					<path
   d="m 0,60.03 v 27.84 c 0,4.69 7.24,8.49 16.19,8.51 V 66.4 Z"
   class="st3"
   id="path22"
   inkscape:connector-curvature="0"
   style="fill:#50a7e1;stroke:none;stroke-width:1.33916998;stroke-linecap:butt" />
				</g>
				<g
   id="shape19171-9"
   transform="translate(0,-27.6027)">
					<title
   id="title25">Sheet.19171</title>
					<path
   d="m 11.5,81.33 a 10.9456,11.1324 0 0 1 0.06,-1.18 C 4.88,81.16 0,84.33 0,88.08 c 0,4.59 7.24,8.3 16.19,8.3 V 90.82 A 11.6227,11.8211 0 0 1 11.5,81.34 Z"
   class="st4"
   id="path27"
   inkscape:connector-curvature="0"
   style="fill:#c0d557;stroke:none;stroke-width:1.33916998;stroke-linecap:butt" />
				</g>
				<g
   id="shape19172-11"
   transform="translate(16.186,-27.6197)">
					<title
   id="title30">Sheet.19172</title>
					<path
   d="M 12.95,93.11 H 6.81 A 11.3602,11.554 0 0 1 0,90.81 v 5.57 h 0.02 a 23.9986,24.4082 -180 0 0 12.93,-3.27 z"
   class="st4"
   id="path32"
   inkscape:connector-curvature="0"
   style="fill:#c0d557;stroke:none;stroke-width:1.33916998;stroke-linecap:butt" />
				</g>
				<g
   id="shape19173-13"
   transform="translate(16.1871,-0.0818227)">
					<title
   id="title35">Sheet.19173</title>
					<path
   d="m 11.97,81.89 0.09,-0.2 0.77,-1.88 0.09,-0.2 0.8,-1.95 1.9,0.82 0.19,0.09 0.42,0.17 V 65.61 H 12.95 A 24.2421,24.6559 0 0 1 0.02,68.9 H 0 v 13.35 h 11.83 z m 0.84,9.88 -0.78,-1.91 -0.08,-0.19 -0.79,-1.97 1.93,-0.81 0.19,-0.08 0.79,-0.34 c -0.03,-0.23 -0.03,-0.45 -0.03,-0.68 0,-0.23 0,-0.49 0.03,-0.74 L 13.28,84.71 13.13,84.64 H 0 v 11.74 h 0.02 a 23.346,23.7445 -180 0 0 13.2,-3.57 l -0.35,-0.89 z"
   class="st5"
   id="path37"
   inkscape:connector-curvature="0"
   style="fill:#1e80c6;stroke:none;stroke-width:1.33916998;stroke-linecap:butt" />
				</g>
				<g
   id="shape19174-15"
   transform="translate(0,-3.1729)">
					<title
   id="title40">Sheet.19174</title>
					<path
   d="m 29.28,87.76 -1.9,-0.83 0.66,-1.63 H 14.78 L 12.91,89.94 7.26,74.03 3.13,85.49 H 0 v 2.01 h 4.75 l 2.62,-7.4 5.71,16.28 3,-8.59 h 13.24 z"
   class="st6"
   id="path42"
   inkscape:connector-curvature="0"
   style="fill:#ffffff;stroke:none;stroke-width:1.33916998;stroke-linecap:butt" />
				</g>
				<g
   id="shape19175-17"
   transform="translate(30.0971)">
					<title
   id="title45">Sheet.19175</title>
					<path
   d="m 18.4,87.81 a 8.12876,8.2675 -180 0 0 0.25,-2.06 8.91985,9.07209 -180 0 0 -0.22,-2.02 l 2.28,-0.95 0.19,-0.09 -0.09,-0.19 -0.77,-1.91 -0.09,-0.19 -0.18,0.09 -2.29,0.95 a 8.30083,8.44251 -180 0 0 -2.8,-2.88 l 0.96,-2.34 0.08,-0.19 -0.19,-0.08 -1.84,-0.79 -0.19,-0.09 -0.07,0.2 -0.96,2.33 A 8.04831,8.18568 -180 0 0 10.46,77.35 8.82152,8.97208 -180 0 0 8.48,77.58 L 7.56,75.24 7.47,75.06 7.28,75.14 5.41,75.93 5.23,76.01 5.31,76.2 6.24,78.54 A 8.2986,8.44024 -180 0 0 3.41,81.4 L 2.33,80.93 1.13,80.42 0.94,80.34 0.86,80.53 0.08,82.42 0,82.61 l 0.19,0.08 2.28,0.98 a 7.34326,7.46859 -180 0 0 -0.15,0.68 c -0.04,0.23 -0.06,0.51 -0.08,0.76 v 0.02 a 5.27168,5.36166 -180 0 0 -0.02,0.57 2.73976,2.78652 -180 0 0 0.02,0.43 0.563147,0.572759 -180 0 0 0.022347,0.192056 C 2.26,86.38 2.28,86.45 2.28,86.53 a 4.83815,4.92072 -180 0 0 0.13,0.81 1.80341,1.83419 -180 0 0 0.08,0.36 l -0.12,0.04 -2.17,0.91 -0.19,0.09 0.09,0.19 0.77,1.91 0.08,0.19 0.19,-0.09 2.28,-0.95 a 8.3053,8.44705 -180 0 0 2.8,2.89 l -0.95,2.33 -0.08,0.19 0.18,0.09 1.85,0.78 0.19,0.09 0.08,-0.19 0.95,-2.34 a 8.13658,8.27545 -180 0 0 2.02,0.26 8.82152,8.97208 -180 0 0 1.97,-0.24 l 0.93,2.34 0.08,0.19 0.19,-0.09 1.86,-0.78 0.19,-0.09 -0.08,-0.19 -0.93,-2.33 a 8.2986,8.44024 -180 0 0 2.82,-2.87 l 2.29,0.98 0.18,0.08 0.09,-0.19 0.77,-1.89 0.08,-0.19 -0.18,-0.08 z m -7.97,3.77 A 5.76109,5.85941 0 0 1 5.91,82.14 l 0.02,-0.02 a 5.73762,5.83555 0 1 1 4.5,9.47 z"
   class="st7"
   id="path47"
   inkscape:connector-curvature="0"
   style="fill:#0e4da7;stroke:none;stroke-width:1.33916998;stroke-linecap:butt" />
				</g>
				<g
   id="shape19176-19"
   transform="translate(35.9878,-14.2121)">
					<title
   id="title50">Sheet.19176</title>
					<path
   d="M 0.06,96.33 H 0.04 l -0.02,0.03 c 0,0 0,0.02 -0.02,0.02 z"
   class="st6"
   id="path52"
   inkscape:connector-curvature="0"
   style="fill:#ffffff;stroke:none;stroke-width:1.33916998;stroke-linecap:butt" />
				</g>
			</g>
		</g>
	</g>
</svg>

<?xml version="1.0" encoding="UTF-8" standalone="no"?>
<!DOCTYPE svg PUBLIC "-//W3C//DTD SVG 1.1//EN" "http://www.w3.org/Graphics/SVG/1.1/DTD/svg11.dtd">
<!-- Generated by Microsoft Visio, SVG Export SQL Database Azure Data Studio.svg Page-1 -->
<svg xmlns="http://www.w3.org/2000/svg" xmlns:xlink="http://www.w3.org/1999/xlink" xmlns:ev="http://www.w3.org/2001/xml-events"
		width="0.850394in" height="1.33858in" viewBox="0 0 61.2283 96.378" xml:space="preserve" color-interpolation-filters="sRGB"
		class="st8">
	<style type="text/css">
	<![CDATA[
		.st1 {fill:#6bbcda;stroke:none;stroke-linecap:butt;stroke-width:1.33917}
		.st2 {fill:#8acae1;stroke:none;stroke-linecap:butt;stroke-width:1.33917}
		.st3 {fill:#50a7e1;stroke:none;stroke-linecap:butt;stroke-width:1.33917}
		.st4 {fill:#c0d557;stroke:none;stroke-linecap:butt;stroke-width:1.33917}
		.st5 {fill:#1e80c6;stroke:none;stroke-linecap:butt;stroke-width:1.33917}
		.st6 {fill:#ffffff;stroke:none;stroke-linecap:butt;stroke-width:1.33917}
		.st7 {fill:#0e4da7;stroke:none;stroke-linecap:butt;stroke-width:1.33917}
		.st8 {fill:none;fill-rule:evenodd;font-size:12px;overflow:visible;stroke-linecap:square;stroke-miterlimit:3}
	]]>
	</style>

	<g>
		<title>Page-1</title>
		<g id="group18730-1" transform="translate(5.10236,-34.0157)">
			<title>SQL Database Azure Data Studio.18730</title>
			<g id="group18731-2">
				<title>Sheet.18731</title>
				<g id="shape18732-3" transform="translate(13.71,-33.2007)">
					<title>Sheet.18732</title>
					<path d="M30.54 82.41 L30.35 82.41 A10.3802 10.5574 -180 0 0 11.22 77.7 A9.76345 9.93009 -180 0 0 9.29 77.49
								 A9.28634 9.44484 -180 1 0 9.29 96.38 L30.54 96.38 A6.86392 6.98107 -180 0 0 30.54 82.42 L30.54 82.41
								 Z" class="st1"/>
				</g>
				<g id="shape18733-5" transform="translate(13.9621,-34.1178)">
					<title>Sheet.18733</title>
					<path d="M13.81 81.31 A10.3691 10.546 0 0 1 15.94 81.55 A10.2551 10.4301 0 0 1 26.45 76.16 A10.3825 10.5597 -180
								 0 0 10.97 78.62 A9.76345 9.93009 -180 0 0 9.04 78.41 A9.28522 9.4437 -180 0 0 5.07 96.38 A9.88413
								 10.0528 0 0 1 3.85 91.5 A9.99251 10.1631 0 0 1 13.81 81.31 L13.81 81.31 Z" class="st2"/>
				</g>
				<g id="shape18734-7" transform="translate(-2.58793E-13,-0.0170464)">
					<title>Sheet.18734</title>
					<path d="M0 60.03 L0 87.87 C0 92.56 7.24 96.36 16.19 96.38 L16.19 66.4 L0 60.03 Z" class="st3"/>
				</g>
				<g id="shape18735-9" transform="translate(-2.58793E-13,-27.6027)">
					<title>Sheet.18735</title>
					<path d="M11.5 81.33 A10.9456 11.1324 0 0 1 11.56 80.15 C4.88 81.16 0 84.33 0 88.08 C0 92.67 7.24 96.38 16.19
								 96.38 L16.19 90.82 A11.6227 11.8211 0 0 1 11.5 81.34 L11.5 81.33 Z" class="st4"/>
				</g>
				<g id="shape18736-11" transform="translate(16.186,-27.6197)">
					<title>Sheet.18736</title>
					<path d="M12.95 93.11 L6.81 93.11 A11.3602 11.554 0 0 1 0 90.81 L0 96.38 L0.02 96.38 A23.9986 24.4082 -180 0
								 0 12.95 93.11 L12.95 93.11 Z" class="st4"/>
				</g>
				<g id="shape18737-13" transform="translate(16.1871,-0.0818227)">
					<title>Sheet.18737</title>
					<path d="M11.97 81.89 L12.06 81.69 L12.83 79.81 L12.92 79.61 L13.72 77.66 L15.62 78.48 L15.81 78.57 L16.23 78.74
								 L16.23 65.61 L12.95 65.61 A24.2421 24.6559 0 0 1 0.02 68.9 L0 68.9 L0 82.25 L11.83 82.25 L11.97
								 81.89 ZM12.81 91.77 L12.03 89.86 L11.95 89.67 L11.16 87.7 L13.09 86.89 L13.28 86.81 L14.07 86.47
								 C14.04 86.24 14.04 86.02 14.04 85.79 C14.04 85.56 14.04 85.3 14.07 85.05 L13.28 84.71 L13.13 84.64
								 L0 84.64 L0 96.38 L0.02 96.38 A23.346 23.7445 -180 0 0 13.22 92.81 L12.87 91.92 L12.81 91.77 Z"
							class="st5"/>
				</g>
				<g id="shape18738-15" transform="translate(2.51799E-13,-3.1729)">
					<title>Sheet.18738</title>
					<path d="M29.28 87.76 L27.38 86.93 L28.04 85.3 L14.78 85.3 L12.91 89.94 L7.26 74.03 L3.13 85.49 L0 85.49 L0 87.5
								 L4.75 87.5 L7.37 80.1 L13.08 96.38 L16.08 87.79 L29.32 87.79 L29.28 87.76 Z" class="st6"/>
				</g>
				<g id="shape18739-17" transform="translate(30.0971,2.70006E-13)">
					<title>Sheet.18739</title>
					<path d="M18.4 87.81 A8.12876 8.2675 -180 0 0 18.65 85.75 A8.91985 9.07209 -180 0 0 18.43 83.73 L20.71 82.78
								 L20.9 82.69 L20.81 82.5 L20.04 80.59 L19.95 80.4 L19.77 80.49 L17.48 81.44 A8.30083 8.44251 -180
								 0 0 14.68 78.56 L15.64 76.22 L15.72 76.03 L15.53 75.95 L13.69 75.16 L13.5 75.07 L13.43 75.27 L12.47
								 77.6 A8.04831 8.18568 -180 0 0 10.46 77.35 A8.82152 8.97208 -180 0 0 8.48 77.58 L7.56 75.24 L7.47
								 75.06 L7.28 75.14 L5.41 75.93 L5.23 76.01 L5.31 76.2 L6.24 78.54 A8.2986 8.44024 -180 0 0 3.41 81.4
								 L2.33 80.93 L1.13 80.42 L0.94 80.34 L0.86 80.53 L0.08 82.42 L0 82.61 L0.19 82.69 L2.47 83.67 A7.34326
								 7.46859 -180 0 0 2.32 84.35 C2.28 84.58 2.26 84.86 2.24 85.11 L2.24 85.13 A5.27168 5.36166 -180
								 0 0 2.22 85.7 A2.73976 2.78652 -180 0 0 2.24 86.13 a0.563147 0.572759 -180 0 0 0.0223471 0.192056
								 C2.26 86.38 2.28 86.45 2.28 86.53 A4.83815 4.92072 -180 0 0 2.41 87.34 A1.80341 1.83419 -180 0 0
								 2.49 87.7 L2.37 87.74 L0.2 88.65 L0.01 88.74 L0.1 88.93 L0.87 90.84 L0.95 91.03 L1.14 90.94 L3.42
								 89.99 A8.3053 8.44705 -180 0 0 6.22 92.88 L5.27 95.21 L5.19 95.4 L5.37 95.49 L7.22 96.27 L7.41 96.36
								 L7.49 96.17 L8.44 93.83 A8.13658 8.27545 -180 0 0 10.46 94.09 A8.82152 8.97208 -180 0 0 12.43 93.85
								 L13.36 96.19 L13.44 96.38 L13.63 96.29 L15.49 95.51 L15.68 95.42 L15.6 95.23 L14.67 92.9 A8.2986
								 8.44024 -180 0 0 17.49 90.03 L19.78 91.01 L19.96 91.09 L20.05 90.9 L20.82 89.01 L20.9 88.82 L20.72
								 88.74 L18.4 87.81 ZM10.43 91.58 A5.76109 5.85941 0 0 1 5.91 82.14 L5.93 82.12 A5.73762 5.83555 0
								 1 1 10.43 91.59 L10.43 91.58 Z" class="st7"/>
				</g>
				<g id="shape18740-19" transform="translate(35.9878,-14.2121)">
					<title>Sheet.18740</title>
					<path d="M0.06 96.33 L0.04 96.33 L0.02 96.36 C0.02 96.36 0.02 96.38 0 96.38 L0.06 96.33 Z" class="st6"/>
				</g>
			</g>
		</g>
	</g>
</svg>
